X: 16752
T: Hare In The Corn, The
R: jig
M: 6/8
K: Dmajor
|:A|F2 A AFA|Bcd AFA|B2 E EDE|FDD D2 A|
FAA AFA|Bcd AFA|Bcd efe|d3 d2:|
|:e|fdf faf|ece ece|fdf faf|ecA A2 e|
fdf faf|ece ecA|Bcd efe|d3 d2:|

